suite-common/icons/assets/icons/minusCircle.svg

<svg xmlns="http://www.w3.org/2000/svg" xml:space="preserve" fill="none" viewBox="0 0 24 24">
  <path fill="#000" fill-rule="evenodd" d="M11.339 2.282c-2.031.13-4.051.95-5.639 2.29-1.744 1.471-2.941 3.588-3.318 5.87a10.7 10.7 0 0 0 0 3.116 9.8 9.8 0 0 0 3.538 6.048 9.74 9.74 0 0 0 8.5 1.826 9.9 9.9 0 0 0 3.88-2.004A9.743 9.743 0 0 0 19.606 5.92a9.4 9.4 0 0 0-2.242-2.043 9.9 9.9 0 0 0-3.806-1.495c-.344-.057-1.459-.148-1.658-.135zm1.755 1.538a8.1 8.1 0 0 1 4.64 2.258c1.14 1.108 1.887 2.394 2.269 3.908.312 1.235.319 2.728.02 3.954a8.1 8.1 0 0 1-2.101 3.794c-1.108 1.14-2.394 1.887-3.908 2.269a8.6 8.6 0 0 1-4.029 0A8.3 8.3 0 0 1 6.8 18.411C6.409 18.095 5.716 17.38 5.431 17c-1.12-1.495-1.671-3.145-1.671-5 0-1.858.55-3.503 1.671-5 .285-.38.978-1.095 1.369-1.411a8.4 8.4 0 0 1 4.065-1.767c.546-.074 1.669-.075 2.229-.002M8.18 11.259a2 2 0 0 1-.149.038c-.147.032-.39.251-.457.411a.74.74 0 0 0 .201.842c.08.071.196.143.256.159.142.04 7.796.04 7.938 0 .152-.042.392-.262.457-.417a.74.74 0 0 0-.139-.786c-.249-.263.047-.245-4.207-.253a298 298 0 0 0-3.9.006"/>
</svg>

<svg xmlns="http://www.w3.org/2000/svg" xml:space="preserve" fill="none" viewBox="0 0 24 24"><path d="M11.339 2.282 C 9.308 2.412,7.288 3.232,5.700 4.572 C 3.956 6.043,2.759 8.160,2.382 10.442 C 2.230 11.361,2.230 12.639,2.382 13.558 C 2.776 15.940,4.036 18.095,5.920 19.606 C 8.298 21.514,11.446 22.190,14.420 21.432 C 15.815 21.076,17.183 20.370,18.300 19.428 C 19.561 18.365,20.551 16.949,21.132 15.380 C 22.317 12.180,21.735 8.574,19.606 5.920 C 18.946 5.097,18.273 4.484,17.364 3.877 C 16.250 3.133,14.905 2.605,13.558 2.382 C 13.214 2.325,12.099 2.234,11.900 2.247 C 11.856 2.249,11.604 2.266,11.339 2.282 M13.094 3.820 C 14.851 4.050,16.448 4.827,17.734 6.078 C 18.874 7.186,19.621 8.472,20.003 9.986 C 20.315 11.221,20.322 12.714,20.023 13.940 C 19.667 15.397,18.970 16.657,17.922 17.734 C 16.814 18.874,15.528 19.621,14.014 20.003 C 12.747 20.323,11.252 20.323,9.985 20.003 C 8.825 19.710,7.726 19.161,6.800 18.411 C 6.409 18.095,5.716 17.380,5.431 17.000 C 4.311 15.505,3.760 13.855,3.760 12.000 C 3.760 10.142,4.310 8.497,5.431 7.000 C 5.716 6.620,6.409 5.905,6.800 5.589 C 7.955 4.654,9.415 4.020,10.865 3.822 C 11.411 3.748,12.534 3.747,13.094 3.820 M8.180 11.259 C 8.158 11.267,8.091 11.284,8.031 11.297 C 7.884 11.329,7.641 11.548,7.574 11.708 C 7.451 12.002,7.531 12.336,7.775 12.550 C 7.855 12.621,7.971 12.693,8.031 12.709 C 8.173 12.749,15.827 12.749,15.969 12.709 C 16.121 12.667,16.361 12.447,16.426 12.292 C 16.537 12.027,16.481 11.711,16.287 11.506 C 16.038 11.243,16.334 11.261,12.080 11.253 C 9.957 11.249,8.202 11.252,8.180 11.259 " stroke="none" fill-rule="evenodd" fill="black"></path></svg>
